symbols/web/3k/materialsymbolsrounded/3k_wght600grad200fill1_24px.svg

<svg xmlns="http://www.w3.org/2000/svg" height="24" width="24"><path d="M13.75 15.025q.325 0 .538-.213.212-.212.212-.537V12.75l1.55 2q.1.125.238.2.137.075.312.075.475 0 .662-.412.188-.413-.087-.763L15.75 12l1.5-1.875q.275-.35.075-.75t-.65-.4q-.175 0-.338.075-.162.075-.262.2l-1.575 2V9.7q0-.3-.212-.512-.213-.213-.538-.213-.325 0-.537.213Q13 9.4 13 9.725V14.3q0 .3.213.512.212.213.537.213Zm-6.375 0h2.775q.4 0 .7-.287.3-.288.3-.713v-4.05q0-.425-.3-.713-.3-.287-.7-.287h-2.8q-.3 0-.512.2-.213.2-.213.525t.213.537q.212.213.537.213H9.65v1.05H8.1q-.2 0-.337.15-.138.15-.138.35 0 .2.15.35.15.15.35.15H9.65v1.025h-2.3q-.3 0-.512.212-.213.213-.213.538 0 .325.213.537.212.213.537.213Zm-2.2 6.875q-1.3 0-2.188-.888-.887-.887-.887-2.187V5.175q0-1.3.887-2.188.888-.887 2.188-.887h13.65q1.3 0 2.188.887.887.888.887 2.188v13.65q0 1.3-.887 2.187-.888.888-2.188.888Z"/></svg>

<svg xmlns="http://www.w3.org/2000/svg" height="24" width="24"><path d="M13.75 15.025Q14.075 15.025 14.288 14.812Q14.5 14.6 14.5 14.275V12.75L16.05 14.75Q16.15 14.875 16.288 14.95Q16.425 15.025 16.6 15.025Q17.075 15.025 17.262 14.613Q17.45 14.2 17.175 13.85L15.75 12L17.25 10.125Q17.525 9.775 17.325 9.375Q17.125 8.975 16.675 8.975Q16.5 8.975 16.337 9.05Q16.175 9.125 16.075 9.25L14.5 11.25V9.7Q14.5 9.4 14.288 9.188Q14.075 8.975 13.75 8.975Q13.425 8.975 13.213 9.188Q13 9.4 13 9.725V14.3Q13 14.6 13.213 14.812Q13.425 15.025 13.75 15.025ZM7.375 15.025H10.15Q10.55 15.025 10.85 14.738Q11.15 14.45 11.15 14.025V9.975Q11.15 9.55 10.85 9.262Q10.55 8.975 10.15 8.975H7.35Q7.05 8.975 6.838 9.175Q6.625 9.375 6.625 9.7Q6.625 10.025 6.838 10.237Q7.05 10.45 7.375 10.45H9.65V11.5H8.1Q7.9 11.5 7.763 11.65Q7.625 11.8 7.625 12Q7.625 12.2 7.775 12.35Q7.925 12.5 8.125 12.5H9.65V13.525H7.35Q7.05 13.525 6.838 13.737Q6.625 13.95 6.625 14.275Q6.625 14.6 6.838 14.812Q7.05 15.025 7.375 15.025ZM5.175 21.9Q3.875 21.9 2.987 21.012Q2.1 20.125 2.1 18.825V5.175Q2.1 3.875 2.987 2.987Q3.875 2.1 5.175 2.1H18.825Q20.125 2.1 21.013 2.987Q21.9 3.875 21.9 5.175V18.825Q21.9 20.125 21.013 21.012Q20.125 21.9 18.825 21.9Z"/></svg>
